packages/core/src/svgs/tokens/mono/X2Y2.svg

<svg width="24" height="24" viewBox="0 0 24 24" fill="none" xmlns="http://www.w3.org/2000/svg">
<path d="M20.2501 6.36039C18.6376 4.76386 16.4578 3.87173 14.1887 3.87954C9.52683 3.87954 5.75245 7.51646 5.75245 12.0032C5.75245 16.4901 9.52683 20.1269 14.1887 20.1269C16.5695 20.1269 18.7191 19.1771 20.2501 17.6461C19.0441 19.4086 17.3057 20.7387 15.289 21.4415C13.2723 22.1443 11.0836 22.1831 9.04341 21.5519C7.00322 20.9207 5.21871 19.6529 3.95126 17.9341C2.6838 16.2152 2 14.1357 2 12.0002C2 9.86448 2.6838 7.78501 3.95126 6.06619C5.21871 4.34737 7.00322 3.07953 9.04341 2.44835C11.0836 1.81718 13.2723 1.85585 15.289 2.5587C17.3057 3.26153 19.0441 4.59161 20.2501 6.35414V6.36039Z" fill="white"/>
<path d="M14.1888 19.5018C18.5005 19.5018 22 16.146 22 12.0029C22 7.85987 18.5005 4.50415 14.1888 4.50415C12.1703 4.50415 10.3331 5.24154 8.9458 6.44135C9.90196 5.94143 10.9955 5.75396 12.1578 5.75396C15.9072 5.75396 18.8754 8.34104 18.8754 12.0029C18.8754 15.6648 15.9134 18.9269 12.1578 18.9269C11.7329 18.9269 11.3204 18.8894 10.9204 18.8143C11.9141 19.2517 13.0201 19.5018 14.1888 19.5018Z" fill="white"/>
<path fill-rule="evenodd" clip-rule="evenodd" d="M12.3139 18.2517C13.8885 18.2517 15.3984 17.6264 16.5118 16.5129C17.6251 15.3997 18.2506 13.8897 18.2506 12.3152C18.2506 10.7408 17.6251 9.23075 16.5118 8.11743C15.3984 7.00412 13.8885 6.37866 12.3139 6.37866C10.7395 6.37866 9.2296 7.00412 8.11621 8.11743C7.00289 9.23075 6.37744 10.7408 6.37744 12.3152C6.37744 13.8897 7.00289 15.3997 8.11621 16.5129C9.2296 17.6264 10.7395 18.2517 12.3139 18.2517ZM12.3139 16.377C13.3913 16.377 14.4244 15.9491 15.1861 15.1874C15.9479 14.4257 16.3759 13.3925 16.3759 12.3152C16.3759 11.238 15.9479 10.2048 15.1861 9.44305C14.4244 8.68131 13.3913 8.25336 12.3139 8.25336C11.2367 8.25336 10.2036 8.68131 9.44176 9.44305C8.68007 10.2048 8.25214 11.238 8.25214 12.3152C8.25214 13.3925 8.68007 14.4257 9.44176 15.1874C10.2036 15.9491 11.2367 16.377 12.3139 16.377Z" fill="white"/>
</svg>

<svg xmlns="http://www.w3.org/2000/svg" width="24" height="24" fill="none" viewBox="0 0 24 24">
    <path fill="#fff" d="M20.25 6.36a8.57 8.57 0 0 0-6.061-2.48c-4.662 0-8.437 3.636-8.437 8.123s3.775 8.124 8.437 8.124c2.38 0 4.53-.95 6.061-2.48a9.998 9.998 0 1 1 0-11.293z"/>
    <path fill="#fff" d="M14.189 19.502c4.311 0 7.811-3.356 7.811-7.5 0-4.142-3.5-7.498-7.811-7.498a8 8 0 0 0-5.243 1.937c.956-.5 2.05-.687 3.212-.687 3.75 0 6.717 2.587 6.717 6.249s-2.962 6.924-6.717 6.924q-.638 0-1.238-.113a8.1 8.1 0 0 0 3.269.688"/>
    <path fill="#fff" fill-rule="evenodd" d="M12.314 18.252a5.936 5.936 0 1 0 0-11.872 5.936 5.936 0 0 0 0 11.872m0-1.875a4.062 4.062 0 1 0 0-8.123 4.062 4.062 0 0 0 0 8.123" clip-rule="evenodd"/>
</svg>
